X: 1
T:Within a Mile of Dublin  "Arr. by T. Tully"
M:C
L:1/8
Q:80
C:Trad. Irish
S:Reel
K:HP
|: {g}eA{gAGAG}A2{g}edcd|
{g}eA{gAGAG}A2{gAGAG}A2af|
{g}eA{gAGAG}A2{g}edcd|  !
{gBeBG}B2ge{gdedc}d2cd:| [|
{g}ea{g}ag{a}edcd|
{g}ea{g}ag{ef}e2cd|  !
{g}ea{g}ag{a}edcd|
{gBeBG}B2ge{gdedc}d2cd{g}ea{g}ag{a}edcd|
{g}ea{g}ag{ef}e2{g}fg|  !
af{a}ge{g}fd{g}ec|
{gBeBG}B2ge{gdedc}d2cd|]
